X: 1
T: Down Home Waltz
C: Buck White (attr.)
%D:1960s
N: Raymond K. McLain included by some sources. (Did he write the lyrics?)
S: Nigel Gatherer on FB 2021-7-16
D: David Grisman [DG] and friends' CD "Mandolin Extravaganza"
R: waltz
Z: 2021 John Chambers <jc:trillian.mit.edu>
M: 3/4
L: 1/8
K: G
de>f "^A1"|\
"G"g2 f2 e2 | d2 c2 B2 | "Am"A3 B c>d | "C"e6 |\
"D"f3g ef | "D7"d3 e c>d | "G"B6- | "D"B3 ||
de>f "^A2"|\
"G"g2 f2 e2 | d2 c2 B2 | "Am"A3 B c>d | "C"e6 |\
"D"fg ef de | "D7"cd Bc AB | "G"G6- | G3 |]
[| FG>^G "B"|\
"Am"A3 B c>e | "D"d4 c2 | "Bm"B3 d f>a | "Em"g4 f2 |\
"Am"e3 f g>b | "A"a4 e2 | "C"g6 | "D"f6 ||
y3 "^A2"||\
"G"g2 f2 e2 | d2 c2 B2 | "Am"A3 B c>d | "C"e6 |\
"D"fg ef de | "D7"cd Bc AB | "G"G6- | G3 |]
